X:1
T:You Light Up My Life
T:You light up my life
T:Joe Brooks
C:Joe Brooks
Z:All Rights Reserved
L:1/4
M:3/4
K:C
V:1 treble nm="Electric Piano"
%%MIDI program 4
V:1
"Dm" F F3/2 G/ |"G" D2 z/ D/ |"C" E E3/2 D/ |"Am" C E2 |"Bb" D D3/2 E/ |"E7" D/B,/ B,3/2 D/ | %6
w: So man- y|nights I'd|sit by my|win- dow|Wait- ing for|some- one to sing|
"Am" C C D |"A7" E3 ||"Dm" G F3/2 E/ |"G" D2 z/ D/ |"C" E E D |"Am" C E3/2 E/ |"B" ^D D E | %13
w: me his *|song|so man- y|dreams I|kept deep in-|side me A-|lone in the|
 ^F2 E/F/ |"D7" ^F F G | A2 z/ D/ |"G" B3 | B c d | B3 | B c d |"E7" B3 | ^G A B |"Am" c2 z/ A/ | %23
w: dark, now you've|come a *|long and|you|light up my|life|you give me|hope|to car- ry|on you|
 c d e |"D7" c3 | c d A |"G" B3- |"Em" B2 z/ c/ |"Am" A3- |"D7" A z2 |"Dm" F F3/2 G/ | %31
w: light up my|days|and fill my|nights|* with|song||Rol- ling at|
"G" D2 z/ D/ |"C" E E3/2 D/ |"Am" C E2 |"Bm" D D3/2 E/ |"E7" D/B,/ B,3/2 D/ |"Am" C C D |"A7" E3 | %38
w: sea a-|drift on the|wa- ters|Could it be|fi- nal- y I'm|turn- ing for|home|
"Dm" G F3/2 E/ |"G" D2 z/ D/ |"C" E E D |"Am" C E3/2 E/ |"B" ^D D E | ^F2 E/F/ |"D7" ^F F G | %45
w: fin'- ly a|chance to|say hey I|love you nev-|er a- gain|to be *|all * a-|
 A2 z/ D/ |"G" B3 | B c d | B3 | B c d |"E7" B3 | ^G A B |"Am" c2 z/ A/ | c d e |"D7" c3 | c d A | %56
w: lone and|you|light up my|life|you give me|hope|to car ry|on you|light up my|days|and fill my|
"B" B3 | ^d3 |"Em" e3 |"A" e e e |"G" =d2 d/B/ |"B" B B A |"Em" G3- |"A" G2 E |"G" D3- |"Am" D3- | %66
w: nights|with|song|It cant be|wrong when it|feels so right|cause||you||
"D" D2 D | c B A |"C" G3- | G3- |"G" G3- | G3 |] %72
w: * you|light up my|life.||||

